X:1
T:Radetzky-Marsch
T:Radetzky-Marsch.
T:Johann Strauss I
T:Public Domain
T:Public Domain
C:Johann Strauss I
Z:Public Domain
%%score { 1 | 2 }
L:1/8
Q:1/4=180
M:2/2
K:D
V:1 treble nm="Piano" snm="Pno."
V:2 bass 
V:1
!ff! [Fd][Fd][Fd] z [Fd][Fd][Fd] z | .f2 .e2 (d3 .c) | (B^ABc .d2) .[^Ge]2 | %3
 .=A2 z2 z2!p!{/=g} .f.^e |: .f z{/g} .f.^e .f z{/g} .f.e | .f z .=e z .d z{/g} .f.^e | %6
 .f z{/g} .f.^e .f z{/g} .f.e | .f z .b z .a z .a.f |1 .g z .b z .a z .a.e | .f z .b z .a z .a.f | %10
 .e z (!>!c'2 .d) z (!>!b2 | a) z (a^g aba=g) :|2 .^g z .f' z !>!e'4 | .f z .e' z !>!d'4 || %14
 !>!c'3 b (a=gfe | d2) [Fd]2 [Fd]2 ||{/e'} .d'.c' | .d' z{/e'} .d'.c' .d' z{/e'} .d'.c' | %18
 .d' z .g' z .b z{/e'} .d'.c' | .d' z{/e'} .d'.c' .d' z{/e'} .d'.c' | .d' z .f' z .a z .[fa] z | %21
 (!>![fa]4 .[eg]) z .[gb] z | (!>![gb]4 .[fa]) z .[fd'] z | .[ac'] z ([ac'][gb] [fa]) z .[eg] z | %24
 .[gb] z ([gb][fa] [eg]) z .[df] z | (!>![fa]4 .[eg]) z .[gb] z | (!>![gb]4 .[fa]) z .d' z | %27
 .c' z"_cresc." (c'^a b) z .d' z | .c' z (c'^a b) z .d' z |!ff! .f'2 .f'.f' .f'2 .f'.f' | %30
 .f'2 .f.f .f2 .f.f | .f z"_dim."{/g} .f.^e .f z{/g} .f.e | .f z{/g} .f.^e .f z{/g} .f.e |: %33
 .f z{/g} .f.^e .f z{/g} .f.e | .f z .=e z .d z{/g} .f.^e | .f z{/g} .f.^e .f z{/g} .f.e | %36
 .f z .b z .a z .a.f |1 .g z .b z .a z .a.e | .f z .b z .a z .a.f | %39
!<(! .e z (!>!c'2 .d) z (!>!b2!<)! | a) z!>(! (a^g aba=g)!>)! :|2 .^g z .f' z !>!e'4 | %42
 .f z .e' z !>!d'4 || !>!c'3 b a=gfe | d2 .[Fd]2 .[Fd]2 z2!fine! ||[K:A]!f!"^Trio." e6 .B2 | %46
 .G2 .E2 .B2 .G2 | .e2 EE .E2 .E2 |!>(! .E2 .E2 .E2 .E2!>)! |:!p! (E[Ac]) [Ac]4 E2 | %50
 (E[Ac]) [Ac]4 [Bd]2 | (eac') z [ac'] z [ac'] z | T[Ac]6 (Bc | dg [gb]4 .[fa]2) | %54
 (3([eg]ag) f z [df] z [df] z |1 (eac') z [ac'] z [ac'] z | T[Ac]6 E2 :|2 (eac') z (dgb) z | %58
 [ca]4 z2 |:!f! (GA | Bd !>!g4) .f2 | (3(efe) d z d z d z | cea z [ca] z [ca] z | TA6 (GA | %64
 Bd g4) .f2 | (3(efe) d z d z d z | (ceac' .e'2) .d'.c' |!>(! .b.a.g.f .e.d.c.B!>)! | %68
!p! (E[Ac]) [Ac]4 E2 | (E[Ac]) [Ac]4 [Bd]2 | (eac') z .[ac'] z .[ac'] z | T[Ac]6 (Bc | %72
 dg [gb]4) .[fa]2 | (3([eg]ag) f z .[df] z .[df] z | (eac') z (dgb) z |1 [ca]4 z2 :|2 %76
 [ca]4 z4!D.C.! || %77
V:2
 [D,A,][D,A,][D,A,] z [D,A,][D,A,][D,A,] z | .D2 .C2 (B,3 .A,) | [^G,DE]2 z2 z2 .[E,B,D]2 | %3
 [A,C]2 z2 z4 |: D,2 [F,A,D]2 D,2 [F,A,D]2 | D,2 [F,A,D]2 D,2 [F,A,D]2 | %6
 D,2 [F,A,D]2 D,2 [F,A,D]2 | D,2 [F,A,D]2 D,2 [F,A,D]2 |1 C,2 [G,A,C]2 A,,2 [G,A,C]2 | %9
 D,2 [F,A,D]2 D,2 [F,A,D]2 | E,2 [A,C]2 E,2 [^G,D]2 | [A,C]2 z2 [A,CE]4 :|2 E,2 [B,D]2 E,2 [B,D]2 | %13
 A,,2 [F,A,D]2 A,,2 [F,A,D]2 || [A,,E,G,]2 z2 [A,,C,G,]2 z2 | [D,F,A,]2 [D,F,A,]2 [D,F,A,]2 || z2 | %17
 D,2 [G,B,D]2 D,2 [G,B,D]2 | D,2 [G,B,D]2 D,2 [G,B,D]2 | D,2 [F,A,D]2 D,2 [F,A,D]2 | %20
 D,2 [F,A,D]2 D,2 [F,A,D]2 | A,,2 [G,A,C]2 [G,A,C]2 [G,A,C]2 | A,,2 [F,A,D]2 [F,A,D]2 [F,A,D]2 | %23
 A,,2 [G,A,C]2 [G,A,C]2 [G,A,C]2 | D,2 [F,A,D]2 [F,A,D]2 [F,A,D]2 | %25
 A,,2 [G,A,C]2 [G,A,C]2 [G,A,C]2 | D,2 [F,A,D]2 [F,A,D]2 [F,A,D]2 | [F,^A,C]4 [F,B,D]2 [F,B,D]2 | %28
 [F,^A,C]4 [F,B,D]2 [F,B,D]2 | [F,^A,C]2 [F,B,D]2 [F,A,C]2 [F,B,D]2 | %30
 [F,^A,C]2 [F,B,D]2 [F,A,C]2 [F,B,D]2 | [F,^A,C]2 z2 [F,A,C]2 z2 | [F,^A,C]2 z2 [F,A,C]2 z2 |: %33
 D,2 [F,=A,D]2 D,2 [F,A,D]2 | D,2 [F,A,D]2 D,2 [F,A,D]2 | D,2 [F,A,D]2 D,2 [F,A,D]2 | %36
 D,2 [F,A,D]2 D,2 [F,A,D]2 |1 C,2 [G,A,C]2 A,,2 [G,A,C]2 | D,2 [F,A,D]2 D,2 [F,A,D]2 | %39
 E,2 [A,C]2 E,2 [^G,D]2 | [A,C]2 z2 [A,CE]4 :|2 E,2 [B,D]2 E,2 [B,D]2 | %42
 A,,2 [F,A,D]2 A,,2 [F,A,D]2 || [A,,E,G,]2 z2 [A,,C,G,]2 z2 | [D,F,A,]2 .[D,F,A,]2 .[D,F,A,]2 z2 || %45
[K:A] E6 .B,2 | .G,2 .E,2 .B,2 .G,2 | .E2 .E,2 .E,2 .E,2 | .E,2 z2 z4 |: A,,2 z2 [E,A,C]2 z2 | %50
 A,,2 z2 [E,A,C]2 z2 | A,,2 z2 [E,A,C]2 z2 | A,,2 z2 [E,A,C]2 z2 | E,,2 z2 [E,B,D]2 z2 | %54
 E,,2 z2 [E,G,D]2 z2 |1 A,,2 z2 [E,A,C]2 z2 | A,,2 z2 [E,A,C]2 z2 :|2 [E,A,C]2 z2 [E,G,D]2 z2 | %58
 A,,2 z2 [E,A,C]2 |: z2 | E,,2 E,2 [B,D]2 E,2 | E,,2 E,2 [G,D]2 E,2 | A,,2 E,2 [A,C]2 E,2 | %63
 A,,2 E,2 [A,C]2 E,2 | E,,2 E,2 [B,D]2 E,2 | E,,2 E,2 [G,D]2 E,2 | [E,A,C]4 z4 | [E,G,B,D]8 | %68
 A,,2 z2 [E,A,C]2 z2 | A,,2 z2 [E,A,C]2 z2 | A,,2 z2 [E,A,C]2 z2 | A,,2 z2 [E,A,C]2 z2 | %72
 E,,2 z2 [E,B,D]2 z2 | E,,2 z2 [E,G,D]2 z2 | [E,A,C]2 z2 [E,G,D]2 z2 |1 A,,2 [E,A,C]2 [E,A,C]2 :|2 %76
 A,,2 [E,A,C]2 [E,A,C]2 z2 || %77

